src/images/svg/svg_sprite.svg

<svg aria-hidden="true" style="position: absolute; width: 0; height: 0; overflow: hidden;" version="1.1" xmlns="http://www.w3.org/2000/svg" xmlns:xlink="http://www.w3.org/1999/xlink">
<defs>
<symbol id="burger-menu" viewBox="0 0 28 28">
<path d="M19.8333 11.6667H3.5" stroke="#111111" stroke-width="2" stroke-linecap="round" stroke-linejoin="round"/>
<path d="M24.5 7H3.5" stroke="#111111" stroke-width="2" stroke-linecap="round" stroke-linejoin="round"/>
<path d="M24.5 16.3333H3.5" stroke="#111111" stroke-width="2" stroke-linecap="round" stroke-linejoin="round"/>
<path d="M19.8333 21H3.5" stroke="#111111" stroke-width="2" stroke-linecap="round" stroke-linejoin="round"/>
</symbol>
<symbol id="email-black" viewBox="0 0 26 22">
<path d="M24.0832 18L16.3333 11M9.66659 11L1.91663 18M1.33325 5.16669L10.859 11.8347C11.6304 12.3747 12.016 12.6446 12.4356 12.7492C12.8061 12.8416 13.1937 12.8416 13.5643 12.7492C13.9838 12.6446 14.3695 12.3747 15.1408 11.8347L24.6666 5.16669M6.93325 20.3334H19.0666C21.0268 20.3334 22.0069 20.3334 22.7556 19.9519C23.4141 19.6163 23.9496 19.0809 24.2851 18.4223C24.6666 17.6736 24.6666 16.6935 24.6666 14.7334V7.26669C24.6666 5.3065 24.6666 4.32641 24.2851 3.57772C23.9496 2.91915 23.4141 2.38372 22.7556 2.04816C22.0069 1.66669 21.0268 1.66669 19.0666 1.66669H6.93325C4.97307 1.66669 3.99298 1.66669 3.24429 2.04816C2.58572 2.38372 2.05029 2.91915 1.71473 3.57772C1.33325 4.32641 1.33325 5.3065 1.33325 7.26669V14.7334C1.33325 16.6935 1.33325 17.6736 1.71473 18.4223C2.05029 19.0809 2.58572 19.6163 3.24429 19.9519C3.99298 20.3334 4.97307 20.3334 6.93325 20.3334Z" stroke="#111111" stroke-width="2" stroke-linecap="round" stroke-linejoin="round"/>
</symbol>
<symbol id="email-white" viewBox="0 0 26 22">
<path d="M24.0835 18L16.3335 11M9.66683 11L1.91687 18M1.3335 5.16666L10.8592 11.8347C11.6306 12.3746 12.0163 12.6446 12.4358 12.7492C12.8064 12.8416 13.194 12.8416 13.5645 12.7492C13.984 12.6446 14.3697 12.3746 15.1411 11.8347L24.6668 5.16666M6.9335 20.3333H19.0668C21.027 20.3333 22.0071 20.3333 22.7558 19.9519C23.4144 19.6163 23.9498 19.0809 24.2854 18.4223C24.6668 17.6736 24.6668 16.6935 24.6668 14.7333V7.26666C24.6668 5.30648 24.6668 4.32639 24.2854 3.5777C23.9498 2.91913 23.4144 2.3837 22.7558 2.04814C22.0071 1.66666 21.027 1.66666 19.0668 1.66666H6.9335C4.97331 1.66666 3.99322 1.66666 3.24453 2.04814C2.58596 2.3837 2.05053 2.91913 1.71497 3.5777C1.3335 4.32639 1.3335 5.30648 1.3335 7.26666V14.7333C1.3335 16.6935 1.3335 17.6736 1.71497 18.4223C2.05053 19.0809 2.58596 19.6163 3.24453 19.9519C3.99322 20.3333 4.97331 20.3333 6.9335 20.3333Z" stroke="#F6F6F6" stroke-width="2" stroke-linecap="round" stroke-linejoin="round"/>
</symbol>
<symbol id="password-black" viewBox="0 0 24 24">
<path d="M17.8333 10.8333V7.33333C17.8333 4.11167 15.2217 1.5 12 1.5C8.77834 1.5 6.16667 4.11167 6.16667 7.33333V10.8333M7.1 22.5H16.9C18.8602 22.5 19.8403 22.5 20.589 22.1185C21.2475 21.783 21.783 21.2475 22.1185 20.589C22.5 19.8403 22.5 18.8602 22.5 16.9V16.4333C22.5 14.4731 22.5 13.4931 22.1185 12.7444C21.783 12.0858 21.2475 11.5504 20.589 11.2148C19.8403 10.8333 18.8602 10.8333 16.9 10.8333H7.1C5.13982 10.8333 4.15972 10.8333 3.41103 11.2148C2.75247 11.5504 2.21703 12.0858 1.88148 12.7444C1.5 13.4931 1.5 14.4731 1.5 16.4333V16.9C1.5 18.8602 1.5 19.8403 1.88148 20.589C2.21703 21.2475 2.75247 21.783 3.41103 22.1185C4.15972 22.5 5.13982 22.5 7.1 22.5Z" stroke="#111111" stroke-width="2" stroke-linecap="round" stroke-linejoin="round"/>
</symbol>
<symbol id="password-white" viewBox="0 0 24 24">
<path d="M17.8333 10.8333V7.33333C17.8333 4.11167 15.2217 1.5 12 1.5C8.77834 1.5 6.16667 4.11167 6.16667 7.33333V10.8333M7.1 22.5H16.9C18.8602 22.5 19.8403 22.5 20.589 22.1185C21.2475 21.783 21.783 21.2475 22.1185 20.589C22.5 19.8403 22.5 18.8602 22.5 16.9V16.4333C22.5 14.4731 22.5 13.4931 22.1185 12.7444C21.783 12.0858 21.2475 11.5504 20.589 11.2148C19.8403 10.8333 18.8602 10.8333 16.9 10.8333H7.1C5.13982 10.8333 4.15972 10.8333 3.41103 11.2148C2.75247 11.5504 2.21703 12.0858 1.88148 12.7444C1.5 13.4931 1.5 14.4731 1.5 16.4333V16.9C1.5 18.8602 1.5 19.8403 1.88148 20.589C2.21703 21.2475 2.75247 21.783 3.41103 22.1185C4.15972 22.5 5.13982 22.5 7.1 22.5Z" stroke="#F6F6F6" stroke-width="2" stroke-linecap="round" stroke-linejoin="round"/>
</symbol>
<symbol id="right-arrow" viewBox="0 0 16 12">
<path d="M1.33325 6H14.6666M14.6666 6L9.66658 1M14.6666 6L9.66658 11" stroke="#EAC645" stroke-width="2" stroke-linecap="round" stroke-linejoin="round"/>
</symbol>
<symbol id="scroll-up" viewBox="0 0 19 11">
<path d="M0.374949 8.7L8.77495 0.275C8.87495 0.175 8.98328 0.104333 9.09995 0.063C9.21662 0.021 9.34162 0 9.47495 0C9.60828 0 9.73328 0.021 9.84995 0.063C9.96662 0.104333 10.075 0.175 10.175 0.275L18.6 8.7C18.8333 8.93333 18.95 9.225 18.95 9.575C18.95 9.925 18.825 10.225 18.575 10.475C18.325 10.725 18.0333 10.85 17.7 10.85C17.3666 10.85 17.075 10.725 16.825 10.475L9.47495 3.125L2.12495 10.475C1.89161 10.7083 1.60428 10.825 1.26295 10.825C0.920948 10.825 0.624949 10.7 0.374949 10.45C0.124949 10.2 -5.14984e-05 9.90833 -5.14984e-05 9.575C-5.14984e-05 9.24167 0.124949 8.95 0.374949 8.7Z" fill="white"/>
</symbol>
<symbol id="scrolldown" viewBox="0 0 14 8">
<path d="M6.34924 5.28346C6.43446 5.36937 6.53585 5.43757 6.64755 5.48411C6.75925 5.53065 6.87907 5.5546 7.00008 5.5546C7.12109 5.5546 7.2409 5.53065 7.35261 5.48411C7.46431 5.43757 7.5657 5.36937 7.65091 5.28346L11.8493 1.07596C11.9345 0.990038 12.0359 0.921843 12.1476 0.875305C12.2593 0.828767 12.3791 0.804808 12.5001 0.804808C12.6211 0.804808 12.7409 0.828767 12.8526 0.875305C12.9643 0.921843 13.0657 0.990038 13.1509 1.07596C13.3217 1.2477 13.4175 1.48004 13.4175 1.72221C13.4175 1.96438 13.3217 2.19671 13.1509 2.36846L8.94341 6.57596C8.42779 7.09094 7.72883 7.3802 7.00008 7.3802C6.27133 7.3802 5.57237 7.09094 5.05674 6.57596L0.849238 2.36846C0.679889 2.19772 0.584416 1.96727 0.583404 1.72679C0.582706 1.60615 0.605829 1.48656 0.651446 1.37487C0.697064 1.26319 0.76428 1.16161 0.849238 1.07596C0.934454 0.990038 1.03584 0.921843 1.14754 0.875305C1.25925 0.828767 1.37906 0.804808 1.50007 0.804808C1.62108 0.804808 1.7409 0.828767 1.8526 0.875305C1.9643 0.921843 2.06569 0.990038 2.1509 1.07596L6.34924 5.28346Z" fill="#4F2EE8"/>
</symbol>
<symbol id="shopping-bag" viewBox="0 0 14 18">
<path d="M12.8333 4.83335H10.3333V4.00002C10.3333 3.11596 9.98213 2.26812 9.35701 1.643C8.73189 1.01788 7.88405 0.666687 6.99999 0.666687C6.11594 0.666687 5.26809 1.01788 4.64297 1.643C4.01785 2.26812 3.66666 3.11596 3.66666 4.00002V4.83335H1.16666C0.945648 4.83335 0.733686 4.92115 0.577406 5.07743C0.421126 5.23371 0.333328 5.44567 0.333328 5.66669V14.8334C0.333328 15.4964 0.59672 16.1323 1.06556 16.6011C1.5344 17.07 2.17029 17.3334 2.83333 17.3334H11.1667C11.8297 17.3334 12.4656 17.07 12.9344 16.6011C13.4033 16.1323 13.6667 15.4964 13.6667 14.8334V5.66669C13.6667 5.44567 13.5789 5.23371 13.4226 5.07743C13.2663 4.92115 13.0543 4.83335 12.8333 4.83335ZM5.33333 4.00002C5.33333 3.55799 5.50892 3.13407 5.82148 2.82151C6.13404 2.50895 6.55796 2.33335 6.99999 2.33335C7.44202 2.33335 7.86594 2.50895 8.1785 2.82151C8.49106 3.13407 8.66666 3.55799 8.66666 4.00002V4.83335H5.33333V4.00002ZM12 14.8334C12 15.0544 11.9122 15.2663 11.7559 15.4226C11.5996 15.5789 11.3877 15.6667 11.1667 15.6667H2.83333C2.61231 15.6667 2.40035 15.5789 2.24407 15.4226C2.08779 15.2663 1.99999 15.0544 1.99999 14.8334V6.50002H3.66666V7.33335C3.66666 7.55437 3.75446 7.76633 3.91074 7.92261C4.06702 8.07889 4.27898 8.16669 4.49999 8.16669C4.72101 8.16669 4.93297 8.07889 5.08925 7.92261C5.24553 7.76633 5.33333 7.55437 5.33333 7.33335V6.50002H8.66666V7.33335C8.66666 7.55437 8.75446 7.76633 8.91074 7.92261C9.06702 8.07889 9.27898 8.16669 9.49999 8.16669C9.72101 8.16669 9.93297 8.07889 10.0892 7.92261C10.2455 7.76633 10.3333 7.55437 10.3333 7.33335V6.50002H12V14.8334Z" fill="#111111"/>
</symbol>
<symbol id="trash" viewBox="0 0 34 34">
<path d="M14.75 10.25H19.25M10.25 12.5H23.75M22.25 12.5L21.724 20.3895C21.6451 21.5732 21.6057 22.165 21.35 22.6138C21.1249 23.0088 20.7854 23.3265 20.3762 23.5248C19.9115 23.75 19.3183 23.75 18.132 23.75H15.868C14.6817 23.75 14.0885 23.75 13.6238 23.5248C13.2146 23.3265 12.8751 23.0088 12.65 22.6138C12.3943 22.165 12.3549 21.5732 12.276 20.3895L11.75 12.5M15.5 15.875V19.625M18.5 15.875V19.625" stroke="white" stroke-width="1.5" stroke-linecap="round" stroke-linejoin="round"/>
</symbol>
<symbol id="tryzub" viewBox="0 0 20 32">
<path d="M9.00548 30.8877C7.26703 29.6252 6.0141 27.7313 5.59123 25.5369H0V2.41992C2.99139 3.86285 5.1527 7.01926 5.38763 10.2959L6.23336 16.7891L5.82615 16.744C4.93344 16.744 4.15035 17.5557 4.15035 18.3523C4.15035 19.1038 4.7455 19.7351 5.52858 19.9004L6.54659 20.1259C8.2224 17.0747 9.17776 14.0836 9.17776 11.1527C9.17776 8.50728 8.81754 5.86191 8.75489 3.15641C8.75489 1.95397 9.24041 0.85674 10.0078 0C10.7909 0.85674 11.2608 1.95397 11.2608 3.15641C11.2608 5.86191 10.8379 8.50728 10.8379 11.1527C10.8379 14.0836 11.7933 17.0747 13.4691 20.1259L14.4871 19.9004C15.2702 19.7351 15.8653 19.0888 15.8653 18.3523C15.8653 17.5406 15.0822 16.744 14.1895 16.744L13.7666 16.8041L14.6124 10.3109C15.0352 7.03429 17.0086 3.86285 20 2.43495V25.5519H14.4244C14.0016 27.7313 12.8113 29.7003 11.0102 30.9028C10.5873 31.1884 10.2271 31.5341 9.99217 32C9.77291 31.5341 9.41269 31.1884 9.00548 30.8877ZM2.64683 17.5557C2.88175 16.6989 3.53955 15.9474 4.38528 15.4814L3.72749 10.1306C3.49256 8.46219 2.77212 6.97417 1.69146 5.75669V17.5406H2.64683V17.5557ZM5.46593 23.9286C5.46593 23.117 5.59123 22.3805 5.76351 21.6289L4.98042 21.4486C3.83712 21.1029 2.9444 20.2461 2.64683 19.1489H1.69146V23.9286H5.46593ZM9.17776 23.9286C9.17776 22.9516 8.39467 22.0949 7.37666 21.9746C7.20438 22.6059 7.07909 23.2372 7.07909 23.9286H9.17776ZM9.17776 25.5519H7.31402C7.61159 26.8145 8.26938 27.9718 9.17776 28.9488V25.5519ZM11.8089 20.5467C11.0885 19.2842 10.4307 17.9615 10.0078 16.5787C9.58496 17.9615 8.92717 19.2842 8.20673 20.5467C8.92717 20.7121 9.52232 21.178 10.0078 21.7041C10.4933 21.178 11.0885 20.7121 11.8089 20.5467ZM12.9522 23.9286C12.9522 23.2372 12.8269 22.6059 12.6547 21.9746C11.6366 22.0949 10.8536 22.9516 10.8536 23.9286H12.9522ZM12.7173 25.5519H10.8536V28.9488C11.7619 27.9568 12.4197 26.8145 12.7173 25.5519ZM18.3399 23.9286V19.1489H17.3845C17.0869 20.2461 16.1785 21.1029 15.0509 21.4486L14.2678 21.6289C14.4401 22.3805 14.5654 23.117 14.5654 23.9286H18.3399ZM18.3399 17.5557V5.75669C17.2592 6.95914 16.4761 8.46219 16.3038 10.1306L15.646 15.4814C16.4918 15.9474 17.1496 16.6839 17.3845 17.5557H18.3399Z" fill="white"/>
</symbol>
<symbol id="user-dropdown" viewBox="0 0 15 8">
<path d="M0.791748 0.75H14.2084L8.17762 7.56742C7.99791 7.77051 7.7542 7.8846 7.50008 7.8846C7.24597 7.8846 7.00225 7.77051 6.82254 7.56742L0.791748 0.75Z" fill="white"/>
</symbol>
<symbol id="violet-book" viewBox="0 0 44 40">
<path d="M42.94 9.64103C42 9.14872 41.02 8.73846 40 8.38974V33.0667C37.72 32.2256 35.38 31.7949 33 31.7949C29.2 31.7949 25.44 32.9026 22 35.0359V10.2154C18.76 8.30769 15.02 7.17949 11 7.17949C7.42 7.17949 4.04 8.08205 1.06 9.64103C0.4 9.96923 0 10.6872 0 11.4462V36.2256C0 37.4154 0.94 38.2564 2 38.2564C2.32 38.2564 2.64 38.1744 2.96 38.0103C5.38 36.718 8.1 35.8974 11 35.8974C15.14 35.8974 18.96 37.5795 22 40C25.04 37.5795 28.86 35.8974 33 35.8974C35.9 35.8974 38.62 36.718 41.04 38.0308C41.36 38.1949 41.68 38.2769 42 38.2769C43.04 38.2769 44 37.4359 44 36.2462V11.4462C44 10.6872 43.6 9.96923 42.94 9.64103ZM18 33.0667C15.72 32.2256 13.38 31.7949 11 31.7949C8.62 31.7949 6.28 32.2256 4 33.0667V12.7385C6.22 11.7744 8.56 11.2821 11 11.2821C13.4 11.2821 15.78 11.7949 18 12.759V33.0667ZM36 0L26 10.2564V29.7436L36 20.5128V0Z" fill="#4F2EE8"/>
</symbol>
<symbol id="x-button-black" viewBox="0 0 18 18">
<path d="M16 2L2 16M2 2L16 16" stroke="#111111" stroke-width="3" stroke-linecap="round" stroke-linejoin="round"/>
</symbol>
<symbol id="x-button-white" viewBox="0 0 18 18">
<path d="M16 2L2 16M2 2L16 16" stroke="#F6F6F6" stroke-width="3" stroke-linecap="round" stroke-linejoin="round"/>
</symbol>
<symbol id="user-icon" viewBox="0 0 13 18">
<path d="M0.166626 17.4166C0.166626 15.7369 0.833886 14.126 2.02162 12.9383C3.20935 11.7506 4.82025 11.0833 6.49996 11.0833C8.17966 11.0833 9.79057 11.7506 10.9783 12.9383C12.166 14.126 12.8333 15.7369 12.8333 17.4166H0.166626ZM6.49996 10.2916C3.87558 10.2916 1.74996 8.166 1.74996 5.54163C1.74996 2.91725 3.87558 0.791626 6.49996 0.791626C9.12433 0.791626 11.25 2.91725 11.25 5.54163C11.25 8.166 9.12433 10.2916 6.49996 10.2916Z" fill="#4F2EE8"/>
</symbol>
</defs>
</svg>

<svg xmlns="http://www.w3.org/2000/svg" aria-hidden="true" style="position:absolute;width:0;height:0;overflow:hidden"><defs><symbol id="burger-menu" viewBox="0 0 28 28"><path stroke="#111" stroke-linecap="round" stroke-linejoin="round" stroke-width="2" d="M19.833 11.667H3.5M24.5 7h-21M24.5 16.333h-21M19.833 21H3.5"/></symbol><symbol id="email-black" viewBox="0 0 26 22"><path stroke="#111" stroke-linecap="round" stroke-linejoin="round" stroke-width="2" d="m24.083 18-7.75-7m-6.666 0-7.75 7M1.333 5.167l9.526 6.668c.771.54 1.157.81 1.577.914.37.093.758.093 1.128 0 .42-.104.806-.374 1.577-.914l9.526-6.668M6.933 20.333h12.134c1.96 0 2.94 0 3.689-.381a3.5 3.5 0 0 0 1.53-1.53c.38-.748.38-1.729.38-3.689V7.267c0-1.96 0-2.94-.38-3.69a3.5 3.5 0 0 0-1.53-1.529c-.75-.381-1.73-.381-3.69-.381H6.934c-1.96 0-2.94 0-3.689.381a3.5 3.5 0 0 0-1.53 1.53c-.38.748-.38 1.728-.38 3.689v7.466c0 1.96 0 2.94.38 3.69a3.5 3.5 0 0 0 1.53 1.529c.749.381 1.73.381 3.69.381Z"/></symbol><symbol id="email-white" viewBox="0 0 26 22"><path stroke="#F6F6F6" stroke-linecap="round" stroke-linejoin="round" stroke-width="2" d="m24.084 18-7.75-7m-6.667 0-7.75 7M1.333 5.167l9.526 6.668c.772.54 1.157.81 1.577.914.37.093.758.093 1.129 0 .419-.104.805-.374 1.576-.914l9.526-6.668M6.933 20.333h12.134c1.96 0 2.94 0 3.689-.381a3.5 3.5 0 0 0 1.53-1.53c.38-.748.38-1.729.38-3.689V7.267c0-1.96 0-2.94-.38-3.69a3.5 3.5 0 0 0-1.53-1.529c-.749-.381-1.729-.381-3.69-.381H6.935c-1.96 0-2.94 0-3.69.381a3.5 3.5 0 0 0-1.529 1.53c-.382.748-.382 1.728-.382 3.689v7.466c0 1.96 0 2.94.382 3.69a3.5 3.5 0 0 0 1.53 1.529c.748.381 1.728.381 3.689.381Z"/></symbol><symbol id="password-black" viewBox="0 0 24 24"><path stroke="#111" stroke-linecap="round" stroke-linejoin="round" stroke-width="2" d="M17.833 10.833v-3.5a5.833 5.833 0 1 0-11.666 0v3.5M7.1 22.5h9.8c1.96 0 2.94 0 3.689-.381a3.5 3.5 0 0 0 1.53-1.53c.381-.749.381-1.729.381-3.689v-.467c0-1.96 0-2.94-.381-3.689a3.5 3.5 0 0 0-1.53-1.53c-.749-.38-1.729-.38-3.689-.38H7.1c-1.96 0-2.94 0-3.689.38a3.5 3.5 0 0 0-1.53 1.53c-.381.75-.381 1.73-.381 3.69v.466c0 1.96 0 2.94.381 3.689a3.5 3.5 0 0 0 1.53 1.53c.749.381 1.729.381 3.689.381Z"/></symbol><symbol id="password-white" viewBox="0 0 24 24"><path stroke="#F6F6F6" stroke-linecap="round" stroke-linejoin="round" stroke-width="2" d="M17.833 10.833v-3.5a5.833 5.833 0 1 0-11.666 0v3.5M7.1 22.5h9.8c1.96 0 2.94 0 3.689-.381a3.5 3.5 0 0 0 1.53-1.53c.381-.749.381-1.729.381-3.689v-.467c0-1.96 0-2.94-.381-3.689a3.5 3.5 0 0 0-1.53-1.53c-.749-.38-1.729-.38-3.689-.38H7.1c-1.96 0-2.94 0-3.689.38a3.5 3.5 0 0 0-1.53 1.53c-.381.75-.381 1.73-.381 3.69v.466c0 1.96 0 2.94.381 3.689a3.5 3.5 0 0 0 1.53 1.53c.749.381 1.729.381 3.689.381Z"/></symbol><symbol id="right-arrow" viewBox="0 0 16 12"><path stroke="#EAC645" stroke-linecap="round" stroke-linejoin="round" stroke-width="2" d="M1.333 6h13.334m0 0-5-5m5 5-5 5"/></symbol><symbol id="scroll-up" viewBox="0 0 19 11"><path fill="#fff" d="m.375 8.7 8.4-8.425c.1-.1.208-.17.325-.212C9.217.021 9.342 0 9.475 0s.258.021.375.063a.872.872 0 0 1 .325.212L18.6 8.7c.233.233.35.525.35.875s-.125.65-.375.9a1.2 1.2 0 0 1-.875.375 1.2 1.2 0 0 1-.875-.375l-7.35-7.35-7.35 7.35c-.233.233-.52.35-.862.35-.342 0-.638-.125-.888-.375A1.2 1.2 0 0 1 0 9.575 1.2 1.2 0 0 1 .375 8.7Z"/></symbol><symbol id="scrolldown" viewBox="0 0 14 8"><path fill="#4F2EE8" d="M6.35 5.283a.917.917 0 0 0 1.3 0l4.2-4.207a.916.916 0 1 1 1.3 1.292L8.944 6.576a2.75 2.75 0 0 1-3.886 0L.849 2.368a.917.917 0 0 1 1.302-1.292l4.198 4.207Z"/></symbol><symbol id="shopping-bag" viewBox="0 0 14 18"><path fill="#111" d="M12.833 4.833h-2.5V4a3.333 3.333 0 1 0-6.666 0v.833h-2.5a.833.833 0 0 0-.834.834v9.166a2.5 2.5 0 0 0 2.5 2.5h8.334a2.5 2.5 0 0 0 2.5-2.5V5.667a.833.833 0 0 0-.834-.834ZM5.333 4a1.667 1.667 0 1 1 3.334 0v.833H5.333V4ZM12 14.833a.833.833 0 0 1-.833.834H2.833A.833.833 0 0 1 2 14.833V6.5h1.667v.833a.833.833 0 1 0 1.666 0V6.5h3.334v.833a.833.833 0 1 0 1.666 0V6.5H12v8.333Z"/></symbol><symbol id="trash" viewBox="0 0 34 34"><path stroke="#fff" stroke-linecap="round" stroke-linejoin="round" stroke-width="1.5" d="M14.75 10.25h4.5m-9 2.25h13.5m-1.5 0-.526 7.89c-.079 1.183-.118 1.775-.374 2.224a2.25 2.25 0 0 1-.974.91c-.465.226-1.058.226-2.244.226h-2.264c-1.186 0-1.78 0-2.244-.225a2.25 2.25 0 0 1-.974-.911c-.256-.449-.295-1.04-.374-2.224l-.526-7.89m3.75 3.375v3.75m3-3.75v3.75"/></symbol><symbol id="tryzub" viewBox="0 0 20 32"><path fill="#fff" d="M9.005 30.888a8.64 8.64 0 0 1-3.414-5.351H0V2.42c2.991 1.443 5.153 4.6 5.388 7.876l.845 6.493-.407-.045c-.893 0-1.676.812-1.676 1.608 0 .752.595 1.383 1.379 1.548l1.018.226c1.675-3.051 2.63-6.042 2.63-8.973 0-2.646-.36-5.291-.422-7.997 0-1.202.485-2.3 1.253-3.156.783.857 1.253 1.954 1.253 3.156 0 2.706-.423 5.351-.423 7.997 0 2.93.955 5.922 2.631 8.973l1.018-.226c.783-.165 1.378-.811 1.378-1.548 0-.811-.783-1.608-1.675-1.608l-.423.06.845-6.493C15.035 7.034 17.01 3.863 20 2.435v23.117h-5.576c-.422 2.18-1.613 4.148-3.414 5.35-.423.286-.783.632-1.018 1.098-.22-.466-.58-.812-.987-1.112ZM2.647 17.556c.235-.857.893-1.609 1.738-2.075l-.658-5.35a8.286 8.286 0 0 0-2.036-4.374V17.54h.956v.015Zm2.819 6.373c0-.812.125-1.548.298-2.3l-.784-.18c-1.143-.346-2.036-1.203-2.333-2.3H1.69v4.78h3.775Zm3.712 0c0-.977-.783-1.834-1.801-1.954-.173.63-.298 1.262-.298 1.954h2.099Zm0 1.623H7.314c.298 1.262.955 2.42 1.864 3.397v-3.397Zm2.63-5.005c-.72-1.263-1.377-2.585-1.8-3.968-.423 1.383-1.08 2.705-1.801 3.968.72.165 1.315.631 1.8 1.157.486-.526 1.082-.992 1.802-1.157Zm1.144 3.382c0-.692-.125-1.323-.297-1.954-1.018.12-1.801.977-1.801 1.954h2.098Zm-.235 1.623h-1.863v3.397c.908-.992 1.566-2.135 1.863-3.397Zm5.623-1.623v-4.78h-.956c-.297 1.097-1.206 1.954-2.333 2.3l-.783.18c.172.752.297 1.488.297 2.3h3.775Zm0-6.373v-11.8c-1.08 1.203-1.864 2.706-2.036 4.375l-.658 5.35c.846.466 1.504 1.203 1.738 2.075h.956Z"/></symbol><symbol id="user-dropdown" viewBox="0 0 15 8"><path fill="#fff" d="M.792.75h13.416l-6.03 6.817a.906.906 0 0 1-.678.318.906.906 0 0 1-.677-.318L.792.75Z"/></symbol><symbol id="violet-book" viewBox="0 0 44 40"><path fill="#4F2EE8" d="M42.94 9.641A20.85 20.85 0 0 0 40 8.39v24.677a20.115 20.115 0 0 0-7-1.272c-3.8 0-7.56 1.108-11 3.24v-24.82C18.76 8.308 15.02 7.18 11 7.18c-3.58 0-6.96.903-9.94 2.462C.4 9.969 0 10.687 0 11.446v24.78a2 2 0 0 0 2 2.03c.32 0 .64-.082.96-.246 2.42-1.292 5.14-2.113 8.04-2.113 4.14 0 7.96 1.683 11 4.103 3.04-2.42 6.86-4.103 11-4.103 2.9 0 5.62.821 8.04 2.134.32.164.64.246.96.246 1.04 0 2-.841 2-2.03v-24.8c0-.76-.4-1.478-1.06-1.806ZM18 33.067a20.115 20.115 0 0 0-7-1.272c-2.38 0-4.72.43-7 1.272V12.739a17.42 17.42 0 0 1 7-1.457c2.4 0 4.78.513 7 1.477v20.308ZM36 0 26 10.256v19.488l10-9.231V0Z"/></symbol><symbol id="x-button-black" viewBox="0 0 18 18"><path stroke="#111" stroke-linecap="round" stroke-linejoin="round" stroke-width="3" d="M16 2 2 16M2 2l14 14"/></symbol><symbol id="x-button-white" viewBox="0 0 18 18"><path stroke="#F6F6F6" stroke-linecap="round" stroke-linejoin="round" stroke-width="3" d="M16 2 2 16M2 2l14 14"/></symbol><symbol id="user-icon" viewBox="0 0 13 18"><path fill="#4F2EE8" d="M.167 17.417a6.333 6.333 0 1 1 12.666 0H.167ZM6.5 10.292a4.749 4.749 0 0 1-4.75-4.75A4.749 4.749 0 0 1 6.5.792a4.749 4.749 0 0 1 4.75 4.75 4.749 4.749 0 0 1-4.75 4.75Z"/></symbol></defs></svg>
